X:59
T:RVW2/2/59 The Fisherman
C:James Punt, East Horndon, Essex, 23 April 1904
L:1/8
Q:1/4=90
M:5/8
I:linebreak $
K:G
D | GG(E F)G |[M:3/4] (AF) ED- DD |[M:5/8] GG(A>G)A |[M:3/8] B2 (B/c/) |$[M:5/8] dB (AG)A | 
w: As|I walked out _ one|May _ mor- ning _ down|by the ri- * ver|side and _|there I saw _ a|
BG (EF)G | AA (DE)F |[M:3/8] G2 |] 
w: fi- sher- man _ come|ro- wing down _ the|tide.|



